book-shop/images/change-cost.svg

<svg width="39" height="30" fill="none" xmlns="http://www.w3.org/2000/svg"><path d="M32 16.5l3 3 3-3" stroke="#000" stroke-linecap="round" stroke-linejoin="round"/><path d="M15.13 20.798l1.008.018v2.61H15.13v-2.628zm.09-.198V9.638l.81-.126v11.124l-.81-.036zm-.09-13.77h1.008v2.574l-1.008.126v-2.7zm4.014 4.572a2.666 2.666 0 00-.576-.486 4.653 4.653 0 00-.81-.414 4.78 4.78 0 00-.99-.306 4.665 4.665 0 00-1.098-.126c-.984 0-1.71.186-2.178.558-.468.372-.702.882-.702 1.53 0 .456.12.816.36 1.08.24.264.606.48 1.098.648.504.168 1.14.342 1.908.522.888.192 1.656.426 2.304.702.648.276 1.146.648 1.494 1.116.348.456.522 1.068.522 1.836 0 .612-.12 1.146-.36 1.602a3.095 3.095 0 01-.972 1.116c-.42.288-.912.504-1.476.648a8.05 8.05 0 01-1.836.198 9.194 9.194 0 01-1.908-.198 8.598 8.598 0 01-1.746-.612 7.531 7.531 0 01-1.548-.99l.774-1.368c.192.204.438.408.738.612.312.192.66.372 1.044.54a7.97 7.97 0 001.278.414c.456.096.924.144 1.404.144.912 0 1.62-.162 2.124-.486.504-.336.756-.822.756-1.458 0-.48-.144-.864-.432-1.152-.276-.288-.69-.528-1.242-.72a22.086 22.086 0 00-2.016-.576c-.864-.216-1.59-.45-2.178-.702-.588-.264-1.032-.606-1.332-1.026-.288-.42-.432-.966-.432-1.638 0-.816.198-1.506.594-2.07.396-.564.942-.99 1.638-1.278.696-.288 1.482-.432 2.358-.432.576 0 1.11.06 1.602.18.504.12.972.288 1.404.504a6.13 6.13 0 011.188.774l-.756 1.314z" fill="#1D1F22"/></svg>

<svg width="39" height="30" viewBox="0 0 39 30" fill="none" xmlns="http://www.w3.org/2000/svg">
<path d="M32 16.5L35 19.5L38 16.5" stroke="black" stroke-linecap="round" stroke-linejoin="round"/>
<path d="M15.13 20.798L16.138 20.816V23.426H15.13V20.798ZM15.22 20.6V9.638L16.03 9.512V20.636L15.22 20.6ZM15.13 6.83H16.138V9.404L15.13 9.53V6.83ZM19.144 11.402C19 11.234 18.808 11.072 18.568 10.916C18.328 10.76 18.058 10.622 17.758 10.502C17.458 10.37 17.128 10.268 16.768 10.196C16.42 10.112 16.054 10.07 15.67 10.07C14.686 10.07 13.96 10.256 13.492 10.628C13.024 11 12.79 11.51 12.79 12.158C12.79 12.614 12.91 12.974 13.15 13.238C13.39 13.502 13.756 13.718 14.248 13.886C14.752 14.054 15.388 14.228 16.156 14.408C17.044 14.6 17.812 14.834 18.46 15.11C19.108 15.386 19.606 15.758 19.954 16.226C20.302 16.682 20.476 17.294 20.476 18.062C20.476 18.674 20.356 19.208 20.116 19.664C19.888 20.108 19.564 20.48 19.144 20.78C18.724 21.068 18.232 21.284 17.668 21.428C17.104 21.56 16.492 21.626 15.832 21.626C15.184 21.626 14.548 21.56 13.924 21.428C13.312 21.284 12.73 21.08 12.178 20.816C11.626 20.552 11.11 20.222 10.63 19.826L11.404 18.458C11.596 18.662 11.842 18.866 12.142 19.07C12.454 19.262 12.802 19.442 13.186 19.61C13.582 19.778 14.008 19.916 14.464 20.024C14.92 20.12 15.388 20.168 15.868 20.168C16.78 20.168 17.488 20.006 17.992 19.682C18.496 19.346 18.748 18.86 18.748 18.224C18.748 17.744 18.604 17.36 18.316 17.072C18.04 16.784 17.626 16.544 17.074 16.352C16.522 16.16 15.85 15.968 15.058 15.776C14.194 15.56 13.468 15.326 12.88 15.074C12.292 14.81 11.848 14.468 11.548 14.048C11.26 13.628 11.116 13.082 11.116 12.41C11.116 11.594 11.314 10.904 11.71 10.34C12.106 9.776 12.652 9.35 13.348 9.062C14.044 8.774 14.83 8.63 15.706 8.63C16.282 8.63 16.816 8.69 17.308 8.81C17.812 8.93 18.28 9.098 18.712 9.314C19.144 9.53 19.54 9.788 19.9 10.088L19.144 11.402Z" fill="#1D1F22"/>
</svg>
